X:1
T:Title
%%score { ( 1 3 ) | ( 2 4 ) }
L:1/8
M:4/4
K:Db
V:1 treble nm="Grand Piano"
V:3 treble 
V:2 bass 
V:4 bass 
V:1
 z4 z2[Q:1/4=100] DE | F[FA][FA][FA] [GB][FA][_F=G][=FA] | d6 z2 | %3
 [FA][FA][_F=G][=FA] [_GB][FA][EG][DF] | [CE]6 FE | DF[FA][FA] [GB][FA][_F=G][=FA] | d6 z2 | %7
 cccc edcB |[M:3/4] [A,CA]6 |[M:1/4] Bc |[M:4/4] d6 z2 | A6 z2 | %12
 [GB][FA][_F=G][=FA] [Fd][FA][E_G][DF] | [CE]6 FE | DFF[FA] [Fd]2 [Fc][Fd] |[M:9/8] edd B d2- dcB | %16
[M:4/4] ABcd e2 c2 |[M:3/4] d2- [Gd-][Gd-] [Fd]2 |] %18
V:2
 z4 z2 [D,F,][D,G,D] | [D,A,D][D,D][D,D][D,D] [D,D][D,D][D,D][D,D] | %2
 [D,A,]2 [G,B,][G,B,] [D,A,]2 [D,D][D,D] | [D,D][D,D][D,B,][D,A,] [D,D][D,D][C,A,][D,A,] | %4
 [A,,A,]2 A,A, A,G,[F,A,D][G,A,C] | [F,A,][D,A,D][D,D][D,D] [D,D][D,D][D,D][D,D] | %6
 [D,A,]2 [G,B,][G,B,] [D,A,]2 [D,A,][D,A,] | %7
 [E,A,E][E,A,E][E,A,E][E,A,E] [E,=G,E][E,B,E][E,A,E][E,G,D] |[M:3/4] A,,6 |[M:1/4][K:treble] GG | %10
[M:4/4] F6[K:bass] z2 | F6 z2 | [D,D][D,D][D,D][D,D] [D,A,][D,D][C,A,][D,A,] | %13
 [A,,A,]2 A,A, A,G,[F,A,D][G,A,C] | [F,A,][D,A,D][D,A,D][D,D] [D,A,]2 [D,A,][D,=A,] | %15
[M:9/8][K:treble] [G,B,G][G,B,G][G,B,G] [G,DG] [G,B,G]2- [G,B,G][G,CG][G,DG] | %16
[M:4/4] [A,DF][A,DF][A,DF][A,DF] [A,CG]2 [A,EG]2 |[M:3/4][K:bass] z2 B,B, A,2 |] %18
V:3
 x8 | x8 | F2 GG F2 [Ac][GB] | x8 | x8 | x8 | F2 GG F2 [FA][_FB] | x8 |[M:3/4] x6 |[M:1/4] x2 | %10
[M:4/4] z2 A,A, A,2 cB | z2 DD D2 F[FA] | x8 | x8 | x8 |[M:9/8] x9 |[M:4/4] x8 | %17
[M:3/4] [DF]2 z2 z2 |] %18
V:4
 x8 | x8 | x8 | x8 | x8 | x8 | x8 | x8 |[M:3/4] x6 |[M:1/4][K:treble] x2 | %10
[M:4/4] z2[K:bass] D,D, D,2 _FF | z2 D,D, D,2 [D,A,D][D,D] | x8 | x8 | x8 |[M:9/8][K:treble] x9 | %16
[M:4/4] x8 |[M:3/4][K:bass] D,6 |] %18

